public/logos/VB.svg

<?xml version="1.0" encoding="UTF-8"?>
<svg xmlns="http://www.w3.org/2000/svg" xmlns:xlink="http://www.w3.org/1999/xlink" width="114.4pt" height="59pt" viewBox="0 0 114.4 59" version="1.1">
<defs>
<clipPath id="clip1">
  <path d="M 83 0 L 114.398438 0 L 114.398438 37 L 83 37 Z M 83 0 "/>
</clipPath>
</defs>
<g id="surface1">
<g clip-path="url(#clip1)" clip-rule="nonzero">
<path style=" stroke:none;fill-rule:nonzero;fill:rgb(24.119568%,69.586182%,23.847961%);fill-opacity:1;" d="M 104.71875 21.539062 C 104.519531 21.464844 104.347656 21.363281 104.160156 21.34375 C 103.082031 21.230469 102 21.097656 100.914062 21.050781 C 100.21875 21.019531 99.515625 21.148438 98.816406 21.167969 C 97.984375 21.191406 97.164062 21.339844 96.410156 21.652344 C 94.183594 22.570312 93.667969 24.066406 94 26.121094 C 94.058594 26.472656 94.160156 26.832031 94.324219 27.148438 C 94.75 27.996094 95.488281 28.476562 96.371094 28.777344 C 97.8125 29.269531 99.304688 29.355469 100.8125 29.320312 C 101.511719 29.304688 102.214844 29.246094 102.914062 29.199219 C 103.507812 29.15625 104.105469 29.09375 104.71875 29.039062 C 104.71875 26.492188 104.71875 24.023438 104.71875 21.539062 Z M 104.703125 14.847656 C 104.859375 13.285156 104.683594 11.851562 103.765625 10.574219 C 103.238281 9.84375 102.59375 9.300781 101.734375 8.988281 C 100.765625 8.636719 99.777344 8.4375 98.75 8.445312 C 97.773438 8.453125 96.796875 8.410156 95.828125 8.464844 C 94.738281 8.527344 93.648438 8.609375 92.578125 8.792969 C 91.246094 9.027344 89.9375 9.375 88.542969 9.6875 C 88.503906 9.5625 88.417969 9.367188 88.386719 9.160156 C 88.140625 7.660156 87.898438 6.15625 87.667969 4.652344 C 87.523438 3.722656 87.402344 2.785156 87.261719 1.8125 C 87.636719 1.480469 88.167969 1.4375 88.644531 1.332031 C 90.011719 1.03125 91.394531 0.800781 92.773438 0.5625 C 94.421875 0.28125 96.085938 0.105469 97.761719 0.101562 C 98.34375 0.101562 98.933594 -0.046875 99.503906 0.015625 C 100.851562 0.167969 102.207031 0.144531 103.554688 0.375 C 105.023438 0.625 106.445312 0.984375 107.792969 1.597656 C 110.992188 3.050781 112.957031 5.542969 113.78125 8.9375 C 114.1875 10.609375 114.398438 12.308594 114.394531 14.042969 C 114.378906 20.859375 114.390625 27.679688 114.390625 34.496094 C 114.390625 34.738281 114.390625 34.980469 114.390625 35.261719 C 113.5625 35.441406 112.769531 35.628906 111.96875 35.777344 C 110.660156 36.023438 109.351562 36.246094 108.039062 36.460938 C 107.492188 36.550781 106.9375 36.601562 106.386719 36.660156 C 105.492188 36.753906 104.605469 36.839844 103.710938 36.921875 C 103.542969 36.9375 103.371094 36.941406 103.199219 36.945312 C 101.058594 36.949219 98.910156 37.027344 96.773438 36.933594 C 94.222656 36.824219 91.730469 36.359375 89.40625 35.210938 C 86.761719 33.90625 85.078125 31.820312 84.34375 28.984375 C 84.085938 28 83.964844 26.988281 83.96875 25.960938 C 83.976562 24.625 84.007812 23.304688 84.402344 22.003906 C 84.773438 20.769531 85.386719 19.695312 86.210938 18.71875 C 87.660156 17.003906 89.5625 16.023438 91.640625 15.332031 C 92.835938 14.929688 94.078125 14.75 95.328125 14.574219 C 96.824219 14.359375 98.320312 14.265625 99.824219 14.316406 C 101.394531 14.371094 102.964844 14.46875 104.496094 14.867188 C 104.539062 14.878906 104.59375 14.859375 104.703125 14.847656 "/>
</g>
<path style=" stroke:none;fill-rule:nonzero;fill:rgb(24.119568%,69.586182%,23.847961%);fill-opacity:1;" d="M 67.324219 24.070312 C 70.09375 16.484375 72.546875 8.824219 74.65625 1.035156 C 78.117188 1.035156 81.539062 1.035156 85.019531 1.035156 C 84.667969 2.1875 84.351562 3.300781 83.996094 4.398438 C 83.140625 7.042969 82.296875 9.699219 81.382812 12.328125 C 80.527344 14.796875 79.613281 17.253906 78.667969 19.691406 C 77.683594 22.222656 76.675781 24.742188 75.601562 27.234375 C 74.660156 29.421875 73.621094 31.5625 72.613281 33.71875 C 72.289062 34.421875 71.898438 35.097656 71.605469 35.8125 C 71.449219 36.195312 71.21875 36.246094 70.875 36.246094 C 69.535156 36.234375 68.199219 36.242188 66.859375 36.242188 C 65.59375 36.242188 64.328125 36.242188 62.992188 36.242188 C 60.140625 30.625 57.671875 24.832031 55.40625 18.949219 C 53.144531 13.082031 51.160156 7.117188 49.347656 1.035156 C 52.917969 1.035156 56.417969 1.035156 59.902344 1.035156 C 61.066406 4.902344 62.207031 8.773438 63.398438 12.628906 C 64.589844 16.476562 65.808594 20.316406 67.324219 24.070312 "/>
<path style=" stroke:none;fill-rule:nonzero;fill:rgb(24.119568%,69.586182%,23.847961%);fill-opacity:1;" d="M 11.371094 1.03125 C 13.570312 8.78125 15.882812 16.46875 18.714844 24.019531 C 19.507812 22.175781 20.160156 20.304688 20.78125 18.417969 C 21.414062 16.488281 22.042969 14.550781 22.65625 12.613281 C 23.265625 10.699219 23.863281 8.78125 24.4375 6.855469 C 25.003906 4.933594 25.535156 3.003906 26.089844 1.035156 C 29.519531 1.035156 32.964844 1.035156 36.5 1.035156 C 35.382812 4.488281 34.328125 7.90625 33.167969 11.285156 C 30.246094 19.800781 26.894531 28.140625 22.828125 36.210938 C 20.042969 36.210938 17.277344 36.210938 14.425781 36.210938 C 11.546875 30.625 9.105469 24.820312 6.839844 18.9375 C 4.574219 13.066406 2.585938 7.101562 0.761719 1.03125 C 4.316406 1.03125 7.835938 1.03125 11.371094 1.03125 "/>
<path style=" stroke:none;fill-rule:nonzero;fill:rgb(24.119568%,69.586182%,23.847961%);fill-opacity:1;" d="M 48.429688 1.082031 C 48.429688 12.804688 48.429688 24.480469 48.429688 36.199219 C 45.09375 36.199219 41.792969 36.199219 38.496094 36.199219 C 38.371094 35.660156 38.320312 2.4375 38.441406 1.105469 C 38.957031 0.96875 47.617188 0.945312 48.429688 1.082031 "/>
<path style=" stroke:none;fill-rule:nonzero;fill:rgb(88.615417%,14.196777%,14.923096%);fill-opacity:1;" d="M 35.25 51.53125 C 35.992188 51.539062 36.75 50.800781 36.765625 50.050781 C 36.78125 49.316406 36.039062 48.511719 35.296875 48.527344 C 34.40625 48.546875 33.796875 49.175781 33.753906 50.039062 C 33.71875 50.777344 34.496094 51.523438 35.25 51.53125 Z M 33.589844 58.761719 C 30.472656 58.914062 27.382812 56.140625 27.457031 52.535156 C 27.523438 49.199219 30.230469 46.410156 33.707031 46.457031 C 37.175781 46.503906 39.839844 49.25 39.84375 52.652344 C 39.847656 56.113281 36.921875 58.9375 33.589844 58.761719 "/>
<path style=" stroke:none;fill-rule:nonzero;fill:rgb(24.119568%,69.586182%,23.847961%);fill-opacity:1;" d="M 7.855469 48.515625 C 7.070312 48.503906 6.285156 49.253906 6.28125 50.023438 C 6.28125 50.765625 7.019531 51.519531 7.773438 51.542969 C 8.5 51.5625 9.308594 50.8125 9.300781 50.070312 C 9.292969 49.253906 8.71875 48.636719 7.855469 48.515625 Z M 6.171875 58.75 C 3.097656 58.90625 0.00390625 56.371094 0 52.648438 C -0.00390625 49.179688 2.71875 46.425781 6.28125 46.460938 C 9.652344 46.492188 12.355469 49.167969 12.378906 52.609375 C 12.402344 56.230469 9.328125 58.960938 6.171875 58.75 "/>
<path style=" stroke:none;fill-rule:nonzero;fill:rgb(88.615417%,14.196777%,14.923096%);fill-opacity:1;" d="M 85.605469 57.03125 C 86.722656 57.328125 87.742188 57.308594 88.761719 57.261719 C 90.230469 57.195312 91.242188 56.417969 91.890625 55.121094 C 92.375 54.148438 92.351562 53.105469 92.328125 52.058594 C 92.304688 51.269531 92.097656 50.53125 91.75 49.828125 C 91.386719 49.097656 90.816406 48.609375 90.046875 48.332031 C 88.726562 47.84375 87.480469 48.089844 86.253906 48.664062 C 85.777344 48.886719 85.589844 49.1875 85.597656 49.734375 C 85.628906 51.921875 85.609375 54.109375 85.605469 56.296875 C 85.605469 56.535156 85.605469 56.773438 85.605469 57.03125 Z M 84.167969 41.535156 C 84.679688 41.457031 85.101562 41.394531 85.601562 41.320312 C 85.601562 43.441406 85.601562 45.496094 85.601562 47.617188 C 86.347656 47.21875 87.03125 46.921875 87.789062 46.8125 C 89.332031 46.59375 90.753906 46.859375 91.976562 47.835938 C 92.816406 48.503906 93.339844 49.429688 93.613281 50.453125 C 94.046875 52.050781 94.050781 53.648438 93.484375 55.238281 C 92.761719 57.265625 90.746094 58.578125 88.890625 58.605469 C 87.40625 58.625 85.929688 58.636719 84.5 58.140625 C 84.390625 58.105469 84.285156 58.042969 84.167969 57.992188 C 84.167969 52.507812 84.167969 47.042969 84.167969 41.535156 "/>
<path style=" stroke:none;fill-rule:nonzero;fill:rgb(88.615417%,14.196777%,14.923096%);fill-opacity:1;" d="M 55.234375 51.648438 C 56.195312 51.792969 61.242188 51.757812 61.722656 51.613281 C 61.667969 50.835938 61.527344 50.085938 61.144531 49.390625 C 60.84375 48.859375 60.425781 48.460938 59.863281 48.257812 C 58.539062 47.785156 57.101562 48.035156 56.144531 49.273438 C 55.609375 49.960938 55.328125 50.742188 55.234375 51.648438 Z M 63.1875 52.976562 C 62.265625 53.054688 61.394531 53.003906 60.523438 53.011719 C 59.648438 53.023438 58.773438 53.015625 57.898438 53.015625 C 57.027344 53.015625 56.15625 53.015625 55.296875 53.015625 C 55.078125 55.222656 56.414062 57.207031 58.6875 57.261719 C 59.785156 57.289062 60.871094 57.28125 61.90625 56.832031 C 61.964844 56.804688 62.046875 56.828125 62.152344 56.828125 C 62.234375 57.179688 62.316406 57.527344 62.40625 57.890625 C 61.839844 58.324219 61.183594 58.46875 60.554688 58.535156 C 59.519531 58.652344 58.46875 58.703125 57.4375 58.433594 C 55.492188 57.925781 54.324219 56.679688 53.871094 54.722656 C 53.546875 53.324219 53.503906 51.925781 53.90625 50.550781 C 54.300781 49.21875 55 48.078125 56.257812 47.34375 C 57.699219 46.503906 60.070312 46.425781 61.597656 47.71875 C 62.011719 48.070312 62.371094 48.550781 62.601562 49.042969 C 63.164062 50.25 63.34375 51.539062 63.1875 52.976562 "/>
<path style=" stroke:none;fill-rule:nonzero;fill:rgb(88.615417%,14.196777%,14.923096%);fill-opacity:1;" d="M 73.339844 52.800781 C 73.339844 53.039062 73.324219 53.382812 73.347656 53.71875 C 73.363281 53.960938 73.417969 54.199219 73.488281 54.429688 C 74.253906 56.964844 75.789062 57.542969 77.820312 57.21875 C 79.15625 57.003906 79.898438 56.003906 80.304688 54.792969 C 80.824219 53.242188 80.78125 51.667969 80.128906 50.167969 C 79.191406 48.011719 76.992188 47.625 75.3125 48.445312 C 74.445312 48.867188 73.964844 49.621094 73.644531 50.476562 C 73.378906 51.1875 73.269531 51.933594 73.339844 52.800781 Z M 76.9375 58.644531 C 74.308594 58.742188 72.273438 56.695312 71.855469 54.117188 C 71.660156 52.917969 71.695312 51.742188 72.027344 50.585938 C 72.523438 48.84375 73.554688 47.53125 75.332031 46.992188 C 77.351562 46.378906 79.191406 46.761719 80.671875 48.335938 C 81.476562 49.191406 81.875 50.273438 82.082031 51.40625 C 82.328125 52.746094 82.171875 54.058594 81.691406 55.335938 C 81.085938 56.953125 79.960938 58.011719 78.304688 58.476562 C 77.867188 58.601562 77.394531 58.59375 76.9375 58.644531 "/>
<path style=" stroke:none;fill-rule:nonzero;fill:rgb(88.615417%,14.196777%,14.923096%);fill-opacity:1;" d="M 50.324219 53.105469 C 49.953125 53.023438 49.609375 52.933594 49.257812 52.882812 C 48.632812 52.789062 48.003906 52.824219 47.375 52.851562 C 46.875 52.875 46.433594 53.019531 45.988281 53.222656 C 45.203125 53.582031 44.867188 54.238281 44.871094 55.03125 C 44.871094 55.855469 45.125 56.628906 45.984375 56.992188 C 46.292969 57.121094 46.628906 57.230469 46.957031 57.246094 C 47.832031 57.277344 48.707031 57.269531 49.582031 57.246094 C 49.835938 57.238281 50.089844 57.136719 50.324219 57.082031 C 50.324219 55.734375 50.324219 54.453125 50.324219 53.105469 Z M 51.828125 58.09375 C 51.363281 58.203125 50.953125 58.332031 50.527344 58.398438 C 49.203125 58.605469 47.867188 58.6875 46.535156 58.558594 C 45.753906 58.484375 45.019531 58.214844 44.425781 57.667969 C 43.355469 56.683594 43.199219 55.457031 43.503906 54.125 C 43.785156 52.875 44.671875 52.210938 45.832031 51.863281 C 47.304688 51.417969 48.792969 51.457031 50.339844 51.84375 C 50.421875 50.949219 50.351562 50.105469 50.023438 49.324219 C 49.675781 48.480469 48.921875 48.117188 48.042969 48.066406 C 46.996094 48.003906 45.957031 48.039062 44.988281 48.46875 C 44.925781 48.421875 44.863281 48.402344 44.855469 48.367188 C 44.425781 46.90625 44.726562 47.109375 45.8125 46.890625 C 46.863281 46.679688 47.929688 46.640625 48.996094 46.863281 C 50.554688 47.1875 51.574219 48.40625 51.71875 50.042969 C 51.925781 52.300781 51.78125 54.5625 51.824219 56.824219 C 51.832031 57.230469 51.828125 57.640625 51.828125 58.09375 "/>
<path style=" stroke:none;fill-rule:nonzero;fill:rgb(88.615417%,14.196777%,14.923096%);fill-opacity:1;" d="M 103.148438 47.050781 C 103.6875 47.050781 104.117188 47.050781 104.585938 47.050781 C 104.585938 50.6875 104.585938 54.28125 104.585938 57.917969 C 104.09375 58.242188 103.472656 58.285156 102.894531 58.40625 C 101.796875 58.640625 100.671875 58.65625 99.554688 58.570312 C 97.640625 58.421875 96.324219 57.339844 95.980469 55.425781 C 95.824219 54.546875 95.746094 53.648438 95.722656 52.753906 C 95.683594 51.125 95.710938 49.492188 95.710938 47.863281 C 95.710938 47.621094 95.710938 47.378906 95.710938 47.109375 C 96.207031 46.933594 96.683594 47.03125 97.175781 47.03125 C 97.175781 48.613281 97.160156 50.164062 97.179688 51.710938 C 97.191406 52.660156 97.203125 53.613281 97.316406 54.550781 C 97.425781 55.476562 97.707031 56.382812 98.617188 56.867188 C 98.972656 57.054688 99.386719 57.203125 99.785156 57.234375 C 100.824219 57.320312 101.871094 57.277344 102.902344 57.066406 C 102.96875 57.050781 103.023438 56.996094 103.148438 56.917969 C 103.148438 53.675781 103.148438 50.394531 103.148438 47.050781 "/>
<path style=" stroke:none;fill-rule:nonzero;fill:rgb(88.615417%,14.196777%,14.923096%);fill-opacity:1;" d="M 106.304688 58.003906 C 106.429688 57.554688 106.535156 57.164062 106.660156 56.707031 C 107.441406 57.0625 108.234375 57.222656 109.046875 57.320312 C 109.914062 57.425781 110.742188 57.328125 111.535156 56.992188 C 112.585938 56.550781 112.855469 55.210938 112.039062 54.402344 C 111.71875 54.085938 111.300781 53.84375 110.890625 53.648438 C 110.148438 53.296875 109.363281 53.023438 108.617188 52.671875 C 108.183594 52.464844 107.757812 52.207031 107.386719 51.902344 C 105.996094 50.75 106.246094 48.449219 107.671875 47.472656 C 108.199219 47.109375 108.78125 46.882812 109.421875 46.804688 C 110.765625 46.640625 112.078125 46.710938 113.402344 47.289062 C 113.300781 47.695312 113.199219 48.078125 113.097656 48.488281 C 112.945312 48.476562 112.84375 48.492188 112.765625 48.457031 C 111.832031 48.003906 110.835938 48 109.839844 48.066406 C 109.554688 48.085938 109.257812 48.148438 108.996094 48.269531 C 108.445312 48.523438 108.015625 48.90625 107.960938 49.566406 C 107.90625 50.261719 108.164062 50.820312 108.777344 51.15625 C 109.351562 51.46875 109.953125 51.730469 110.546875 52.003906 C 111.144531 52.277344 111.769531 52.496094 112.335938 52.816406 C 113.046875 53.210938 113.660156 53.746094 113.855469 54.59375 C 114.230469 56.242188 113.765625 57.507812 112.207031 58.195312 C 111.878906 58.339844 111.519531 58.464844 111.164062 58.503906 C 109.546875 58.683594 107.925781 58.765625 106.304688 58.003906 "/>
<path style=" stroke:none;fill-rule:nonzero;fill:rgb(88.615417%,14.196777%,14.923096%);fill-opacity:1;" d="M 66.757812 58.386719 C 66.214844 58.386719 65.785156 58.386719 65.324219 58.386719 C 65.324219 54.757812 65.324219 51.164062 65.324219 47.578125 C 66.628906 46.773438 69.730469 46.472656 71.394531 47.125 C 71.300781 47.503906 71.207031 47.894531 71.117188 48.261719 C 70.367188 48.195312 69.65625 48.113281 68.941406 48.070312 C 68.210938 48.03125 67.5 48.164062 66.757812 48.421875 C 66.757812 51.738281 66.757812 55.039062 66.757812 58.386719 "/>
<path style=" stroke:none;fill-rule:nonzero;fill:rgb(69.165039%,68.603516%,68.742371%);fill-opacity:1;" d="M 19.878906 46.730469 C 16.9375 46.453125 13.726562 49.492188 13.992188 52.691406 C 13.773438 55.585938 16.609375 58.640625 19.964844 58.609375 C 23.097656 58.582031 26.101562 55.746094 25.84375 52.605469 C 26.070312 49.582031 23.066406 46.476562 19.878906 46.730469 Z M 13.5625 52.59375 C 13.496094 49.292969 16.390625 46.285156 19.921875 46.285156 C 23.402344 46.285156 26.289062 49.164062 26.28125 52.667969 C 26.277344 56.113281 23.445312 59.039062 19.882812 59 C 16.453125 58.964844 13.496094 56.226562 13.5625 52.59375 "/>
<path style=" stroke:none;fill-rule:nonzero;fill:rgb(72.598267%,72.099304%,72.2229%);fill-opacity:1;" d="M 23.058594 50.007812 C 23.074219 50.785156 22.296875 51.558594 21.519531 51.550781 C 20.78125 51.539062 20.035156 50.839844 20.003906 50.132812 C 19.964844 49.34375 20.714844 48.503906 21.460938 48.5 C 22.234375 48.5 23.046875 49.265625 23.058594 50.007812 "/>
</g>
</svg>

<svg xmlns="http://www.w3.org/2000/svg" width="114.4pt" height="59pt" viewBox="0 0 114.4 59"><defs><clipPath id="a"><path d="M83 0h31.398v37H83Zm0 0"/></clipPath></defs><g clip-path="url(#a)"><path d="M104.719 21.54c-.2-.075-.371-.177-.559-.196-1.078-.114-2.16-.246-3.246-.293-.695-.031-1.398.097-2.098.117-.832.023-1.652.172-2.406.484-2.226.918-2.742 2.414-2.41 4.47.059.35.16.71.324 1.026.426.848 1.164 1.329 2.047 1.63 1.442.492 2.934.577 4.442.542.699-.015 1.402-.074 2.101-.12.594-.044 1.191-.106 1.805-.16zm-.016-6.692c.156-1.563-.02-2.996-.937-4.274-.528-.73-1.172-1.273-2.032-1.586-.968-.351-1.957-.55-2.984-.543-.977.008-1.953-.035-2.922.02-1.09.062-2.18.144-3.25.328-1.332.234-2.64.582-4.035.895-.04-.126-.125-.32-.156-.528-.246-1.5-.489-3.004-.719-4.508-.145-.93-.266-1.867-.406-2.84.375-.332.906-.375 1.383-.48 1.367-.3 2.75-.531 4.128-.77 1.649-.28 3.313-.457 4.989-.46.582 0 1.172-.149 1.742-.086 1.348.152 2.703.129 4.05.359 1.47.25 2.891.61 4.239 1.223 3.2 1.453 5.164 3.945 5.988 7.34.406 1.671.617 3.37.614 5.105-.016 6.816-.004 13.637-.004 20.453v.766c-.829.18-1.621.367-2.422.515-1.309.246-2.617.47-3.93.684-.547.09-1.102.14-1.652.2-.895.093-1.782.179-2.676.26-.168.017-.34.02-.512.024-2.14.004-4.289.082-6.426-.011-2.55-.11-5.043-.575-7.367-1.723-2.644-1.305-4.328-3.39-5.062-6.227a11.7 11.7 0 0 1-.375-3.023c.008-1.336.039-2.656.433-3.957.371-1.234.985-2.309 1.809-3.285 1.45-1.715 3.352-2.696 5.43-3.387 1.195-.402 2.437-.582 3.687-.758a25.5 25.5 0 0 1 4.496-.258c1.57.055 3.14.153 4.672.551.043.012.098-.008.207-.02" style="stroke:none;fill-rule:nonzero;fill:#3eb13d;fill-opacity:1"/></g><path d="M67.324 24.07a282 282 0 0 0 7.332-23.035H85.02c-.352 1.153-.668 2.266-1.024 3.363-.855 2.645-1.7 5.301-2.613 7.93a216 216 0 0 1-2.715 7.363 226 226 0 0 1-3.066 7.543c-.942 2.188-1.98 4.328-2.989 6.485-.324.703-.715 1.379-1.008 2.093-.156.383-.386.434-.73.434-1.34-.012-2.676-.004-4.016-.004h-3.867c-2.851-5.617-5.32-11.41-7.586-17.293-2.261-5.867-4.246-11.832-6.058-17.914h10.554c1.164 3.867 2.305 7.738 3.496 11.594 1.192 3.848 2.41 7.687 3.926 11.441M11.371 1.031c2.2 7.75 4.512 15.438 7.344 22.989.793-1.844 1.445-3.715 2.066-5.602.633-1.93 1.262-3.867 1.875-5.805.61-1.914 1.207-3.832 1.782-5.758.566-1.921 1.097-3.851 1.652-5.82H36.5c-1.117 3.453-2.172 6.871-3.332 10.25-2.922 8.516-6.273 16.856-10.34 24.926h-8.402c-2.88-5.586-5.32-11.39-7.586-17.273C4.574 13.066 2.586 7.102.762 1.03zM48.43 1.082v35.117h-9.934c-.125-.539-.176-33.761-.055-35.094.516-.136 9.176-.16 9.989-.023" style="stroke:none;fill-rule:nonzero;fill:#3eb13d;fill-opacity:1"/><path d="M35.25 51.531c.742.008 1.5-.73 1.516-1.48.015-.735-.727-1.54-1.47-1.524-.89.02-1.5.649-1.542 1.512-.035.738.742 1.484 1.496 1.492m-1.66 7.23c-3.117.153-6.207-2.62-6.133-6.226.066-3.336 2.773-6.125 6.25-6.078 3.469.047 6.133 2.793 6.137 6.195.004 3.461-2.922 6.285-6.254 6.11" style="stroke:none;fill-rule:nonzero;fill:#e22426;fill-opacity:1"/><path d="M7.855 48.516c-.785-.012-1.57.738-1.574 1.507 0 .743.739 1.497 1.492 1.52.727.02 1.536-.73 1.528-1.473-.008-.816-.582-1.433-1.446-1.554M6.172 58.75C3.098 58.906.004 56.371 0 52.648c-.004-3.468 2.719-6.222 6.281-6.187 3.371.031 6.074 2.707 6.098 6.148.023 3.621-3.05 6.352-6.207 6.141" style="stroke:none;fill-rule:nonzero;fill:#3eb13d;fill-opacity:1"/><path d="M85.605 57.031c1.118.297 2.137.278 3.157.23 1.468-.066 2.48-.843 3.129-2.14.484-.973.46-2.016.437-3.062a5.3 5.3 0 0 0-.578-2.23c-.363-.731-.934-1.22-1.703-1.497-1.32-.488-2.567-.242-3.793.332-.477.223-.664.523-.656 1.07.03 2.188.011 4.375.007 6.563zm-1.437-15.496c.512-.078.934-.14 1.434-.215v6.297c.746-.398 1.43-.695 2.187-.804 1.543-.22 2.965.046 4.188 1.023.84.668 1.363 1.594 1.636 2.617.434 1.598.438 3.195-.129 4.785-.722 2.028-2.738 3.34-4.593 3.367-1.485.02-2.961.032-4.391-.464-.11-.036-.215-.098-.332-.149zM55.234 51.648c.961.145 6.008.11 6.489-.035-.055-.777-.196-1.527-.578-2.222-.301-.532-.72-.93-1.282-1.133-1.324-.473-2.761-.223-3.718 1.015-.536.688-.817 1.47-.91 2.375m7.953 1.329c-.921.078-1.792.027-2.664.035-.875.011-1.75.004-2.625.004h-2.601c-.219 2.207 1.117 4.191 3.39 4.246 1.098.027 2.184.02 3.22-.43.058-.027.14-.004.245-.004.082.352.164.7.254 1.063-.566.433-1.222.578-1.851.644-1.035.117-2.086.168-3.117-.101-1.946-.508-3.114-1.754-3.567-3.711-.324-1.399-.367-2.797.035-4.172.395-1.332 1.094-2.473 2.352-3.207 1.441-.84 3.812-.918 5.34.375.414.351.773.832 1.004 1.324.562 1.207.742 2.496.586 3.934M73.34 52.8c0 .24-.016.583.008.919.015.242.07.48.14.71.766 2.536 2.301 3.114 4.332 2.79 1.336-.215 2.078-1.215 2.485-2.426.52-1.55.476-3.125-.176-4.625-.938-2.156-3.137-2.543-4.817-1.723-.867.422-1.347 1.176-1.667 2.032-.266.71-.375 1.457-.305 2.324m3.597 5.845c-2.628.097-4.664-1.95-5.082-4.528-.195-1.199-.16-2.375.172-3.531.496-1.742 1.528-3.055 3.305-3.594 2.02-.613 3.86-.23 5.34 1.344.805.855 1.203 1.937 1.41 3.07.246 1.34.09 2.653-.39 3.93-.606 1.617-1.731 2.676-3.387 3.14-.438.126-.91.118-1.368.169M50.324 53.105c-.37-.082-.715-.171-1.066-.222-.625-.094-1.254-.059-1.883-.031-.5.023-.941.168-1.387.37-.785.36-1.12 1.016-1.117 1.81 0 .823.254 1.597 1.113 1.96.309.13.645.238.973.254.875.031 1.75.024 2.625 0 .254-.008.508-.11.742-.164zm1.504 4.989c-.465.11-.875.238-1.3.304-1.325.207-2.66.29-3.993.16-.781-.074-1.515-.343-2.11-.89-1.07-.984-1.226-2.211-.921-3.543.281-1.25 1.168-1.914 2.328-2.262 1.473-.445 2.961-.406 4.508-.02.082-.894.012-1.738-.317-2.519-.347-.844-1.101-1.207-1.98-1.258-1.047-.062-2.086-.027-3.055.403-.062-.047-.125-.067-.133-.102-.43-1.46-.128-1.258.958-1.476 1.05-.211 2.117-.25 3.183-.028 1.559.325 2.578 1.543 2.723 3.18.207 2.258.062 4.52.105 6.781.008.406.004.817.004 1.27M103.148 47.05h1.438v10.868c-.492.324-1.113.367-1.691.488-1.098.235-2.223.25-3.34.164-1.914-.148-3.23-1.23-3.575-3.144a18 18 0 0 1-.257-2.672c-.04-1.629-.012-3.262-.012-4.89v-.755c.496-.175.973-.078 1.465-.078 0 1.582-.016 3.133.004 4.68.011.95.023 1.902.136 2.84.11.926.391 1.832 1.301 2.316.356.188.77.336 1.168.367 1.04.086 2.086.043 3.117-.168.067-.015.121-.07.246-.148zM106.305 58.004c.125-.45.23-.84.355-1.297.781.355 1.574.516 2.387.613.867.106 1.695.008 2.488-.328a1.576 1.576 0 0 0 .504-2.59c-.32-.316-.738-.558-1.148-.754-.743-.351-1.528-.625-2.274-.976a6 6 0 0 1-1.23-.77c-1.39-1.152-1.14-3.453.285-4.43a3.9 3.9 0 0 1 1.75-.667c1.344-.164 2.656-.094 3.98.484-.101.406-.203.79-.304 1.2-.153-.012-.254.003-.332-.032-.934-.453-1.93-.457-2.926-.39-.285.019-.582.081-.844.203-.55.253-.98.636-1.035 1.296-.055.696.203 1.254.816 1.59.575.313 1.176.574 1.77.848.598.273 1.223.492 1.789.812.71.395 1.324.93 1.52 1.778.374 1.648-.09 2.914-1.649 3.601-.328.145-.687.27-1.043.309-1.617.18-3.238.262-4.86-.5M66.758 58.387h-1.434V47.578c1.305-.805 4.406-1.105 6.07-.453l-.277 1.137c-.75-.067-1.46-.149-2.176-.192-.73-.039-1.441.094-2.183.352z" style="stroke:none;fill-rule:nonzero;fill:#e22426;fill-opacity:1"/><path d="M19.879 46.73c-2.942-.277-6.152 2.762-5.887 5.961-.219 2.895 2.617 5.95 5.973 5.918 3.133-.027 6.137-2.863 5.879-6.004.226-3.023-2.778-6.128-5.965-5.875m-6.317 5.864c-.066-3.301 2.829-6.309 6.36-6.309 3.48 0 6.367 2.88 6.36 6.383-.005 3.445-2.837 6.371-6.4 6.332-3.429-.035-6.386-2.773-6.32-6.406" style="stroke:none;fill-rule:nonzero;fill:#b0afaf;fill-opacity:1"/><path d="M23.059 50.008c.015.777-.762 1.55-1.54 1.543-.738-.012-1.484-.711-1.515-1.418-.04-.79.71-1.63 1.457-1.633.773 0 1.586.766 1.598 1.508" style="stroke:none;fill-rule:nonzero;fill:#b9b8b8;fill-opacity:1"/></svg>
